brandFactory_export/1.Light/Flecha abajo_1Light.svg

<?xml version="1.0" encoding="UTF-8"?>
<svg width="24px" height="24px" viewBox="0 0 24 24" version="1.1" xmlns="http://www.w3.org/2000/svg" xmlns:xlink="http://www.w3.org/1999/xlink">
    <title>1.Light/Flecha abajo_1Light</title>
    <g id="Symbols" stroke="none" stroke-width="1" fill="none" fill-rule="evenodd">
        <g id="1.Light/Flecha-abajo_1Light" fill="#5CB615" fill-rule="nonzero">
            <path d="M11.7411765,23.6907563 L11.7378151,23.6907563 C11.5529412,23.6907563 11.3815126,23.6067227 11.2268908,23.4453782 L0.51092437,12.6857143 C0.0537815126,12.2521008 -0.114285714,11.6605042 0.0840336134,11.1764706 C0.255462185,10.7563025 0.65210084,10.5109244 1.14957983,10.5176471 L5.68403361,10.5109244 C5.78151261,10.5109244 5.85882353,10.4168067 5.85882353,10.302521 L5.85882353,2.02352941 C5.8487395,1.39495798 6.02689076,0.900840336 6.38655462,0.54789916 C6.75966387,0.181512605 7.3210084,6.1409211e-16 8.01008403,0.0201680672 L15.4722689,0.0201680672 C16.2621849,0.00672268908 16.8067227,0.168067227 17.1831933,0.531092437 C17.5294118,0.867226891 17.7042017,1.3512605 17.7142857,2.01680672 L17.7142857,2.02352941 L17.7109244,10.3058824 C17.7109244,10.4201681 17.7882353,10.5142857 17.8857143,10.5142857 L22.107563,10.487395 C22.7361345,10.4672269 23.297479,10.7798319 23.5058824,11.2705882 C23.7042017,11.7310924 23.5596639,12.2521008 23.1092437,12.692437 L12.3596639,23.3747899 C12.1546218,23.5865546 11.9495798,23.6907563 11.7411765,23.6907563 Z M1.12941176,11.2235294 C0.934453782,11.2235294 0.796638655,11.3008403 0.739495798,11.4420168 C0.672268908,11.6033613 0.702521008,11.8890756 1.00168067,12.1714286 L1.00840336,12.1781513 L11.7310924,22.9478992 L11.7378151,22.9546218 C11.7411765,22.9613445 11.7478992,22.9647059 11.7512605,22.9680672 C11.7714286,22.9546218 11.8084034,22.9277311 11.8554622,22.8773109 L11.8588235,22.8739496 L22.6117647,12.1848739 C22.7495798,12.0504202 22.9613445,11.7882353 22.8571429,11.5462185 C22.7630252,11.3277311 22.4571429,11.1798319 22.1277311,11.1932773 L22.1176471,11.1932773 L17.8890756,11.2201681 C17.4016807,11.2201681 17.005042,10.810084 17.005042,10.3058824 L17.0084034,2.02689076 C17.0016807,1.56302521 16.897479,1.24033613 16.692437,1.04201681 C16.4638655,0.820168067 16.0672269,0.719327731 15.4823529,0.729411765 L7.98991597,0.729411765 C7.64705882,0.719327731 7.17647059,0.766386555 6.88067227,1.05546218 C6.66554622,1.26722689 6.55798319,1.58991597 6.56470588,2.01680672 L6.56470588,10.3058824 C6.56470588,10.810084 6.16806723,11.2201681 5.68067227,11.2201681 L1.14285714,11.2268908 L1.13613445,11.2268908 C1.1394958,11.2235294 1.13277311,11.2235294 1.12941176,11.2235294 Z" id="Flecha-abajo_1Light"></path>
        </g>
    </g>
</svg>

<svg width="24" height="24" viewBox="0 0 24 24" xmlns="http://www.w3.org/2000/svg"><path d="M11.741 23.69h-.003c-.185 0-.356-.083-.511-.245L.51 12.685c-.457-.433-.625-1.024-.427-1.509.171-.42.568-.665 1.066-.658l4.534-.007c.098 0 .175-.094.175-.208v-8.28c-.01-.628.168-1.122.528-1.475C6.76.182 7.32 0 8.01.02h7.462c.79-.013 1.335.148 1.711.511.346.336.521.82.531 1.486v.007l-.003 8.282c0 .114.077.208.175.208l4.222-.027c.628-.02 1.19.293 1.398.784.198.46.054.981-.397 1.421L12.36 23.375c-.204.212-.41.316-.618.316zM1.13 11.225c-.195 0-.332.077-.39.218-.067.161-.036.447.263.73l.006.006 10.723 10.77.007.007c.003.006.01.01.013.013a.588.588 0 00.104-.09l.004-.004 10.753-10.69c.138-.134.35-.396.245-.638-.094-.218-.4-.366-.73-.353h-.01l-4.228.027c-.487 0-.884-.41-.884-.914l.003-8.28c-.006-.463-.11-.786-.316-.984-.228-.222-.625-.323-1.21-.313H7.99c-.343-.01-.814.037-1.11.326-.214.212-.322.535-.315.962v8.289c0 .504-.397.914-.884.914l-4.538.007h-.007c.003-.003-.003-.003-.007-.003z" fill="#5CB615" fill-rule="nonzero"/></svg>
